images/brands/meta.svg

<svg fill="none" height="180" viewBox="0 0 520 180" width="520" xmlns="http://www.w3.org/2000/svg" xmlns:xlink="http://www.w3.org/1999/xlink"><linearGradient id="a" gradientUnits="userSpaceOnUse" x1="97.0658" x2="175.178" y1="98.9424" y2="102.906"><stop offset="0" stop-color="#0064e1"/><stop offset=".4" stop-color="#0064e1"/><stop offset=".83" stop-color="#0073ee"/><stop offset="1" stop-color="#0082fb"/></linearGradient><linearGradient id="b" gradientUnits="userSpaceOnUse" x1="90.7532" x2="90.7532" y1="107.581" y2="78.9162"><stop offset="0" stop-color="#0082fb"/><stop offset="1" stop-color="#0064e0"/></linearGradient><clipPath id="c"><path d="m73 53h374v75h-374z"/></clipPath><g clip-path="url(#c)"><path d="m85.2536 102.461c0 4.311.9508 7.621 2.1935 9.624 1.6294 2.623 4.0596 3.734 6.5371 3.734 3.1956 0 6.1188-.789 11.7528-8.544 4.513-6.216 9.831-14.9412 13.409-20.4111l6.06-9.267c4.21-6.4359 9.082-13.5904 14.668-18.4398 4.561-3.9581 9.48-6.1571 14.432-6.1571 8.312 0 16.23 4.7945 22.29 13.7866 6.631 9.8482 9.851 22.2527 9.851 35.0534 0 7.61-1.507 13.202-4.072 17.619-2.477 4.273-7.306 8.541-15.429 8.541v-12.181c6.955 0 8.691-6.361 8.691-13.641 0-10.3743-2.43-21.8874-7.784-30.1139-3.799-5.835-8.723-9.4005-14.139-9.4005-5.859 0-10.573 4.3979-15.872 12.2395-2.816 4.1663-5.708 9.2435-8.955 14.9726l-3.574 6.3023c-7.181 12.671-8.999 15.558-12.589 20.321-6.293 8.34-11.666 11.501-18.7398 11.501-8.3913 0-13.6975-3.616-16.9838-9.067-2.6827-4.441-4.0004-10.268-4.0004-16.908z" fill="#0081fb"/><path d="m82.6621 67.6466c5.6179-8.6191 13.7252-14.6466 23.0239-14.6466 5.385 0 10.739 1.5864 16.329 6.1296 6.115 4.9673 12.632 13.1466 20.763 26.6269l2.916 4.8377c7.038 11.6698 11.042 17.6738 13.386 20.5048 3.014 3.637 5.124 4.72 7.866 4.72 6.956 0 8.691-6.361 8.691-13.641l10.81-.338c0 7.61-1.507 13.202-4.071 17.619-2.478 4.273-7.307 8.541-15.43 8.541-5.05 0-9.523-1.092-14.471-5.737-3.803-3.565-8.249-9.899-11.669-15.593l-10.175-16.9161c-5.105-8.4895-9.788-14.8193-12.498-17.6858-2.916-3.0825-6.663-6.805-12.644-6.805-4.841 0-8.9518 3.3809-12.392 8.5523z" fill="url(#a)"/><path d="m105.488 65.2631c-4.84 0-8.9512 3.3809-12.3914 8.5523-4.8644 7.3076-7.843 18.1925-7.843 28.6456 0 4.311.9508 7.621 2.1935 9.624l-10.4467 6.848c-2.6827-4.441-4.0004-10.268-4.0004-16.908 0-12.0747 3.3297-24.6598 9.6617-34.3784 5.6179-8.6191 13.7251-14.6466 23.0243-14.6466z" fill="url(#b)"/><path d="m210.268 55.3717h14.174l24.101 43.3979 24.105-43.3979h13.867v71.3093h-11.563v-54.6522l-21.138 37.8452h-10.849l-21.134-37.8452v54.6522h-11.563zm112.48 26.5877c-8.293 0-13.288 6.212-14.483 13.9045h28.145c-.58-7.9241-5.172-13.9045-13.662-13.9045zm-25.948 18.2866c0-16.1858 10.51-27.9659 26.149-27.9659 15.382 0 24.566 11.6309 24.566 28.8299v3.161h-39.25c1.393 8.368 6.971 14.006 15.966 14.006 7.176 0 11.662-2.179 15.915-6.164l6.142 7.488c-5.787 5.297-13.149 8.352-22.467 8.352-16.929 0-27.021-12.287-27.021-27.707zm64.736-17.2657h-10.644v-9.424h10.644v-15.5851h11.157v15.5851h16.171v9.424h-16.171v23.8857c0 8.156 2.62 11.054 9.058 11.054 2.939 0 4.624-.251 7.113-.663v9.322c-3.1.871-6.059 1.272-9.263 1.272-12.044 0-18.065-6.55-18.065-19.661zm74.307 9.165c-2.241-5.6309-7.239-9.7775-14.585-9.7775-9.547 0-15.658 6.7421-15.658 17.7252 0 10.708 5.626 17.776 15.2 17.776 7.528 0 12.901-4.359 15.043-9.781zm11.157 34.5357h-10.952v-7.438c-3.061 4.379-8.632 8.71-17.654 8.71-14.51 0-24.208-12.09-24.208-27.86 0-15.9189 9.93-27.8129 24.823-27.8129 7.362 0 13.138 2.9293 17.039 8.1008v-6.8246h10.952z" fill="#192830"/></g></svg>

<svg width="520" height="180" viewBox="0 0 520 180" fill="none" xmlns="http://www.w3.org/2000/svg">
<g clip-path="url(#clip0_248_4930)">
<path d="M85.2536 102.461C85.2536 106.772 86.2044 110.082 87.4471 112.085C89.0765 114.708 91.5067 115.819 93.9842 115.819C97.1798 115.819 100.103 115.03 105.737 107.275C110.25 101.059 115.568 92.3338 119.146 86.8639L125.206 77.5969C129.416 71.161 134.288 64.0065 139.874 59.1571C144.435 55.199 149.354 53 154.306 53C162.618 53 170.536 57.7945 176.596 66.7866C183.227 76.6348 186.447 89.0393 186.447 101.84C186.447 109.45 184.94 115.042 182.375 119.459C179.898 123.732 175.069 128 166.946 128V115.819C173.901 115.819 175.637 109.458 175.637 102.178C175.637 91.8037 173.207 80.2906 167.853 72.0641C164.054 66.2291 159.13 62.6636 153.714 62.6636C147.855 62.6636 143.141 67.0615 137.842 74.9031C135.026 79.0694 132.134 84.1466 128.887 89.8757L125.313 96.178C118.132 108.849 116.314 111.736 112.724 116.499C106.431 124.839 101.058 128 93.9842 128C85.5929 128 80.2867 124.384 77.0004 118.933C74.3177 114.492 73 108.665 73 102.025L85.2536 102.461Z" fill="#0081FB"/>
<path d="M82.6621 67.6466C88.28 59.0275 96.3873 53 105.686 53C111.071 53 116.425 54.5864 122.015 59.1296C128.13 64.0969 134.647 72.2762 142.778 85.7565L145.694 90.5942C152.732 102.264 156.736 108.268 159.08 111.099C162.094 114.736 164.204 115.819 166.946 115.819C173.902 115.819 175.637 109.458 175.637 102.178L186.447 101.84C186.447 109.45 184.94 115.042 182.376 119.459C179.898 123.732 175.069 128 166.946 128C161.896 128 157.423 126.908 152.475 122.263C148.672 118.698 144.226 112.364 140.806 106.67L130.631 89.7539C125.526 81.2644 120.843 74.9346 118.133 72.0681C115.217 68.9856 111.47 65.2631 105.489 65.2631C100.648 65.2631 96.5372 68.644 93.097 73.8154L82.6621 67.6466Z" fill="url(#paint0_linear_248_4930)"/>
<path d="M105.488 65.2631C100.648 65.2631 96.5368 68.644 93.0966 73.8154C88.2322 81.123 85.2536 92.0079 85.2536 102.461C85.2536 106.772 86.2044 110.082 87.4471 112.085L77.0004 118.933C74.3177 114.492 73 108.665 73 102.025C73 89.9503 76.3297 77.3652 82.6617 67.6466C88.2796 59.0275 96.3868 53 105.686 53L105.488 65.2631Z" fill="url(#paint1_linear_248_4930)"/>
<path d="M210.268 55.3717H224.442L248.543 98.7696L272.648 55.3717H286.515V126.681H274.952V72.0288L253.814 109.874H242.965L221.831 72.0288V126.681H210.268V55.3717ZM322.748 81.9594C314.455 81.9594 309.46 88.1714 308.265 95.8639H336.41C335.83 87.9398 331.238 81.9594 322.748 81.9594ZM296.8 100.246C296.8 84.0602 307.31 72.2801 322.949 72.2801C338.331 72.2801 347.515 83.911 347.515 101.11V104.271H308.265C309.658 112.639 315.236 118.277 324.231 118.277C331.407 118.277 335.893 116.098 340.146 112.113L346.288 119.601C340.501 124.898 333.139 127.953 323.821 127.953C306.892 127.953 296.8 115.666 296.8 100.246ZM361.536 82.9803H350.892V73.5563H361.536V57.9712H372.693V73.5563H388.864V82.9803H372.693V106.866C372.693 115.022 375.313 117.92 381.751 117.92C384.69 117.92 386.375 117.669 388.864 117.257V126.579C385.764 127.45 382.805 127.851 379.601 127.851C367.557 127.851 361.536 121.301 361.536 108.19V82.9803ZM435.843 92.1453C433.602 86.5144 428.604 82.3678 421.258 82.3678C411.711 82.3678 405.6 89.1099 405.6 100.093C405.6 110.801 411.226 117.869 420.8 117.869C428.328 117.869 433.701 113.51 435.843 108.088V92.1453ZM447 126.681H436.048V119.243C432.987 123.622 427.416 127.953 418.394 127.953C403.884 127.953 394.186 115.863 394.186 100.093C394.186 84.1741 404.116 72.2801 419.009 72.2801C426.371 72.2801 432.147 75.2094 436.048 80.3809V73.5563H447V126.681Z" fill="#192830"/>
</g>
<defs>
<linearGradient id="paint0_linear_248_4930" x1="97.0658" y1="98.9424" x2="175.178" y2="102.906" gradientUnits="userSpaceOnUse">
<stop stop-color="#0064E1"/>
<stop offset="0.4" stop-color="#0064E1"/>
<stop offset="0.83" stop-color="#0073EE"/>
<stop offset="1" stop-color="#0082FB"/>
</linearGradient>
<linearGradient id="paint1_linear_248_4930" x1="90.7532" y1="107.581" x2="90.7532" y2="78.9162" gradientUnits="userSpaceOnUse">
<stop stop-color="#0082FB"/>
<stop offset="1" stop-color="#0064E0"/>
</linearGradient>
<clipPath id="clip0_248_4930">
<rect width="374" height="75" fill="white" transform="translate(73 53)"/>
</clipPath>
</defs>
</svg>
